!!!!SEGMENT: pl-wn--mus-iii-82-516-2_zelenski-wladyslaw--piesni-dudarza-komu-slubny-splatasz-wieniec.krn
!!!cenid: 18xx:3784
!!!COM: Żeleński, Władysław
!!!COM-rismID: pe41024455
!!!CDT: 1837/07/06-1921/01/23
!!!CNT: Polish
!!!OTL: Pieśni Dudarza/Komu ślubny splatasz wieniec
!!!PDT:
!!!AGN:
!!!SMS-siglum: PL-Wn
!!!SMS-shelfmark: Mus.III.82.516/2
!!!SMS-shelfwork: W
!!!SMS-variant:
!!!SMS-altvar:
!!!NIFC-rismSourceID:
!!!NIFC-islandoraID:
!!!URL-pdf-islandora:
!!!URL-scan: https://polona.pl/item/piesni-dudarza-z-ballady-a-mickiewicza-2-komu-slubny-splatasz-wieniec,NzI0NjYwMjE/0 @EN{Scan on Polona} @PL{Skany w portalu Polona}
!!!ONB-nifc:
!!!OMD: Quasi Andantino.
!!!AIN: 2 piano 1 vox
!!!key: A-
**kern	**kern	**dynam	**kern	**text	**dynam
*part3	*part2	*part2	*part1	*part1	*part1
*staff3	*staff2	*	*staff1	*staff1	*
*I"Fortepian.	*I"Fortepian.	*	*I"Śpiew.	*	*
*Ipiano	*Ipiano	*	*Ivox	*	*
*ICklav	*ICklav	*	*ICvox	*	*
*clefF4	*clefG2	*	*clefG2	*	*
*k[b-e-a-d-]	*k[b-e-a-d-]	*	*k[b-e-a-d-]	*	*
*A-:	*A-:	*	*A-:	*	*
*M3/4	*M3/4	*	*M3/4	*	*
=1	=1	=1	=1	=1	=1
2.AA-/ 2.E-	8r	p	2.r	.	.
*	*Xtuplet	*	*	*	*
.	(24c/LL	.	.	.	.
.	24g/	.	.	.	.
.	24c/JJ	.	.	.	.
.	8f/L)	.	.	.	.
.	8c'/J	.	.	.	.
.	[4e-^/	.	.	.	.
=2	=2	=2	=2	=2	=2
2.AA-/ 2.E-	8e-/L]	.	2.r	.	.
.	(24c-X/L	.	.	.	.
.	24f/	.	.	.	.
.	24c-/JJ	.	.	.	.
.	8e-/L)	.	.	.	.
.	8A-'/J	.	.	.	.
.	[4dn^/	.	.	.	.
=3	=3	=3	=3	=3	=3
[2.AA-/ [2.E-	16d/LL]	.	2.r	.	.
.	(16A-/	.	.	.	.
.	16c-X/	<	.	.	.
.	16e-/JJ	.	.	.	.
.	16dn/LL	.	.	.	.
.	16c-/	.	.	.	.
.	16d/	.	.	.	.
.	16g/JJ	.	.	.	.
.	16f/LL	.	.	.	.
.	16A-/	.	.	.	.
.	16c-/	[	.	.	.
.	16d/JJ)	.	.	.	.
!!LO:LB:g=original
=4	=4	=4	=4	=4	=4
*	*^	*	*	*	*
2AA-/] 2E-]	N[2e-/	8r	.	2.r	.	.
.	.	(24F\LL	>	.	.	.
.	.	24A-\	.	.	.	.
.	.	24F\JJ	.	.	.	.
.	.	[2A-\)	.	.	.	.
4AA-/ 4E-	4ryy	.	]	.	.	.
*	*v	*v	*	*	*	*
=5	=5	=5	=5	=5	=5
8AA-/ 8E-	8A-/] 8e-N]	.	4r	.	.
!	!LO:TX:b:i:t=leggiero	!	!	!	!
8r	8r	.	.	.	.
!	!	!	!	!	!LO:DY:a
4A-'\	4a-'\ 4cc	.	8cc\	Ko-	p
.	.	.	8ee-\	-mu	.
4Bn'\	4a-'\ 4ddn	.	8ddn\	ślu-	.
.	.	.	8ff\	-bny	.
=6	=6	=6	=6	=6	=6
4c'\	4a-'\ 4ee-	.	8ee-\	spla-	.
.	.	.	8a-/	-tasz	.
4G'\	4f-X'/ 4b- 4dd-	.	4dd-\	wie-	.
4A-'\	4e-'/ 4a- 4cc	.	8cc\	-niec	.
.	.	.	8cc\	Z_róż,	.
=7	=7	=7	=7	=7	=7
4En'\	2c/ 2a- 2cc	.	8b-/L	li-	.
.	.	.	8a-/J	.	.
!	!	!	!	!	!LO:HP:a
4F'\	.	.	8g/	-li-	<
.	.	.	8f/	-i	.
4BB-'/	4dn'/ 4a- 4b-	.	8g/	i	.
.	.	.	8a-/	ty-	[[
!!LO:LB:g=original
=8	=8	=8	=8	=8	=8
4E-'\	2e-/ 2g 2b-	.	4b-\	-mian-	.
4EE-'/	.	.	4e-/	-ka?	.
4E-'\	4G'/ 4B- 4e-	.	4e-/	Ach!	.
=9	=9	=9	=9	=9	=9
*	*^	*	*	*	*
!	!	!	!	!LO:TX:a:i:t=con espress.	!	!
4D-'\	4A-'/ 4d- 4f	4ryy	.	8f/	jak	.
.	.	.	.	8g/	szczę-	.
(4EEn/	(4g/	(4d-\	.	4b-/	-śli-	.
4FF/)	8g/L)	4c\)	.	8g/	-wy	.
.	(8a-/J	.	.	8a-/	mło-	.
*	*v	*v	*	*	*	*
=10	=10	=10	=10	=10	=10
4GG'/	4f-X/) 4b-	.	4dd-\	-dzie-	.
4AA-'/	4e-'/ 4cc	.	4cc\	-niec,	.
4c'\	4e-'/ 4a-	.	[4cc^\	Ko-	.
=11	=11	=11	=11	=11	=11
4A-'\	4e-'/ 4cc	.	8cc\]	.	.
!	!	!	!LO:TX:a:i:t=leggiero	!	!
.	.	.	8ee-\	-mu	.
4Bn'\	4a-'\ 4ddn	.	8ddn\	ślu-	.
.	.	.	8ff\	-bny	.
4c'\	[4a-\ [4ee-	.	8ee-\	spla-	.
.	.	.	8a-/	-tasz	.
!!LO:LB:g=original
=12	=12	=12	=12	=12	=12
2.EE-/ 2.BB-	8a-/L] 8ee-]	p	8dd-X\L	wie-	.
.	(24B-/L	.	8cc\J	.	.
.	24a-/	.	.	.	.
.	24B-/JJ	.	.	.	.
.	8g/L)	.	4b-\	-niec?	.
.	8B-'/J	.	.	.	.
.	[4f^/	.	4r	.	.
=13	=13	=13	=13	=13	=13
2.EE-/ 2.BB-	8f/L]	.	2.r	.	.
.	(24G/L	.	.	.	.
.	24e-/	.	.	.	.
.	24G/JJ	.	.	.	.
.	8dn/L)	.	.	.	.
.	8G'/J	.	.	.	.
.	[4d-X^/	.	.	.	.
=14	=14	=14	=14	=14	=14
[2.AA-/	16d-/LL]	.	2.r	.	.
.	(16E-/	.	.	.	.
.	16A-/	.	.	.	.
.	16c/JJ	.	.	.	.
.	16e-/LL	<	.	.	.
.	16c-X/	.	.	.	.
.	16dn/	.	.	.	.
.	16g/JJ	.	.	.	.
.	16f/LL	.	.	.	.
.	16A-/	.	.	.	.
.	16c-/	.	.	.	.
.	16d/JJ	[[	.	.	.
=15	=15	=15	=15	=15	=15
*	*^	*	*	*	*
2AA-/] 2E-	[2.e-/)	8r	.	4r	.	.
.	.	(24F\LL	>	.	.	.
.	.	24A-\	.	.	.	.
.	.	24F\JJ	.	.	.	.
.	.	2A-\)	]	4r	.	.
!	!	!	!	!	!	!LO:DY:a:rj
4AA-'/ 4E-	.	.	p	[4cc^\	Pe-	p
*	*v	*v	*	*	*	*
!!LO:PB:g=original
=16	=16	=16	=16	=16	=16
((4AA-/ 4E-	(>[4A-/ 4e-]	]	8cc\]	.	.
.	.	.	8cc\	-wnie	.
4FF/)) 4F	4A-/]) 4dn	.	4ddn\	dla	.
4AA-'/	4F'/ 4c	.	4cc\	twe-	.
=17	=17	=17	=17	=17	=17
*	*^	*	*	*	*
(4FF/	2c/	(4A-\	.	8b-\	-go	.
.	.	.	.	8a-/	ko-	.
4EE-/)	.	4G\)	.	4cc\	-chan-	.
4CC'/	4G'/ 4e-	4ryy	.	8g/	-ka?	.
.	.	.	.	8g/	Wy-	.
*	*v	*v	*	*	*	*
=18	=18	=18	=18	=18	=18
4FF'/	4A-'/ 4c	.	8a-/	-da-	.
.	.	.	8g/	-ją	.
4AA-'/	4F'/ 4c 4f	.	4f/	lzy	.
4FF'/	4A-'/ 4c	.	8a-/	i	.
.	.	.	8b-\	ru-	.
=19	=19	=19	=19	=19	=19
2.CC/ 2.GG	8G/L 8e-	.	4cc\	-mie-	.
.	(24c/L	.	.	.	.
.	24a-/	.	.	.	.
.	24c/JJ	.	.	.	.
.	8g/L)	<	4g/	-niec,	.
.	(8G/	.	.	.	.
.	8c/	.	4r	.	.
.	8dn/J	[[	.	.	.
=20	=20	=20	=20	=20	=20
*	*^	*	*	*	*
!	!	!	!	!	!	!LO:HP:a
(4AA-/	2e-/)	(4c\	<	8cc\	ko-	<
.	.	.	.	8ddn\	-mu	.
4GG/)	.	4Bn\)	.	4.ee-\	ślu-	.
4FF#X'/	4An'/ 4e-	4ryy	[	.	.	.
.	.	.	.	8dd\	-bny	[[
!!LO:LB:g=original
=21	=21	=21	=21	=21	=21	=21
!	!	!	!	!LO:TX:a:i:t=espress.	!	!
2GG/	2e-/	(4B-\	.	4.ff\	spla-	.
.	.	4Bn\)	.	.	.	.
.	.	.	.	8ee-\	-tasz	.
4AA-'/	4c'/ 4f	4ryy	.	8ddn\	wie-	.
.	.	.	.	8cc\	-niec	.
*	*v	*v	*	*	*	*
=22	=22	=22	=22	=22	=22
4BB-'/	4B-'/ 4e- 4g	.	8b-\	Z_róż,	.
.	.	.	8bn\	li-	.
!	!	!	!	!	!LO:HP:a
4r	4r	.	8ddn\	-li-	>
.	.	.	8cc\	-i	.
4BB-'/	[4A-/ [4dn	p	8a-/	i	.
.	.	.	8g/	ty-	]]
=23	=23	=23	=23	=23	=23
2.EE-/ 2.BB-	8A-/L] 8d]	.	4f/	-mian-	.
.	(24B-/L	.	.	.	.
.	24a-/	.	.	.	.
.	24B-/JJ	.	.	.	.
.	8g/L)	.	4e-/	-ka.	.
.	8B-'/J	.	.	.	.
.	[4f^/	.	4r	.	.
=24	=24	=24	=24	=24	=24
((2.CC/ 2.C	8f/L]	.	4r	.	.
.	(24G/L	.	.	.	.
.	24e-/	.	.	.	.
.	24G/JJ	.	.	.	.
.	8dn/L)	.	4r	.	.
.	8G'/J	.	.	.	.
!	!	!	!	!	!LO:DY:a:rj
.	[4c^/	.	[4cc^\	Je-	p
!!LO:LB:g=original
=25	=25	=25	=25	=25	=25
4FF/))	4A-/ 4c]	.	8cc\]	.	.
.	.	.	8bn\	-dne-	.
4AA-'/	4F'/ 4dn	.	8ddn\	-mu	.
.	.	.	8cc\	od-	.
4FF'/	4A-'/ 4c	.	8b-X\	-da-	.
.	.	.	8a-/	-jesz	.
=26	=26	=26	=26	=26	=26
4CC'/	4G'/ 4e-	.	4cc\	wie-	.
4EE-'/	4G'/ 4c	.	4g/	-niec	.
4CC'/	4G'/ 4e-	.	4g/	Z_róż,	.
=27	=27	=27	=27	=27	=27
4AA-'/	4c'/ 4f	.	8f/L	li-	.
!	!	!	!	!	!LO:HP:a
.	.	.	8g/J	.	<
4r	4r	.	8a-/	-li-	.
.	.	.	8b-\	-i	.
4FF'/	4A-'/ 4c	.	8cc\	i	.
.	.	.	8ddn\	ty-	[[
=28	=28	=28	=28	=28	=28
4CC'/	4G'/ 4e-	.	4ee-\	-mian-	.
4EE-'/	4G'/ 4c	.	4cc\	-ka;	.
!	!	!	!LO:TX:a:i:t=molto espress.	!	!
4CC'/	4G'/ 4e-	.	8cc\	Ko-	.
.	.	.	8ddn\	-cha	.
!!LO:LB:g=original
=29	=29	=29	=29	=29	=29
*	*^	*	*	*	*
(4FF#X/	[2.e-/	(4An\	.	4.ee-\	cię	.
4GG/	.	4B-\	<	.	.	.
!	!	!	!	!	!	!LO:HP:a
.	.	.	.	8ddn\	dru-	<
4AA-/	.	4c\	[[	8cc\	-gi	.
.	.	.	.	8ee-\	mło-	[[
=30	=30	=30	=30	=30	=30	=30
[4BB-/)	4e-/_	[4G\)	.	4.gg\	-dzie-	.
8BB-/]	8e-/]	8G\]	.	.	.	.
8r	8r	8ryy	.	8ff\	-niec,	.
(4GG/	[4Bn/ [4e-^	4ryy	.	8ee-\	Ty	.
.	.	.	.	8bn\	je-	.
=31	=31	=31	=31	=31	=31	=31
2FF/)	2e-/]	(4B\]	>	8ddn\	-dne-	.
.	.	.	.	8g/	-mu	.
.	.	4c\)	]	(8b-\	od-	.
.	.	.	.	4a-/)	.	.
4BB-'/	[4dn/	[4A-\	p	.	.	.
.	.	.	.	8g/	-dasz	.
*	*v	*v	*	*	*	*
=32	=32	=32	=32	=32	=32
2.EE-/ 2.BB-	8A-/L] 8d]	.	4f/	wie-	.
.	(24B-/L	.	.	.	.
.	24a-/	.	.	.	.
.	24B-/JJ	.	.	.	.
.	8g/L)	.	4e-/	-niec;	.
.	8B-'/J	.	.	.	.
.	[4f^/	.	4r	.	.
!!LO:PB:g=original
=33	=33	=33	=33	=33	=33
[2.EE-/ [2.BB-	8f/L]	.	2.r	.	.
.	(24G/L	.	.	.	.
.	24e-/	.	.	.	.
.	24G/JJ	.	.	.	.
.	8dn/L)	.	.	.	.
.	8G'/J	.	.	.	.
.	16d-X/LL	.	.	.	.
.	(<16E-/	.	.	.	.
.	16G/	.	.	.	.
.	16B-/JJ	.	.	.	.
=34	=34	=34	=34	=34	=34
2EE-/] 2BB-]	16d-X/LL	.	4r	.	.
.	16e-/	.	.	.	.
.	16g/	.	.	.	.
.	16b-/JJ	.	.	.	.
.	4dd-X\)	.	4r	.	.
!	!	!	!LO:TX:a:i:t=con espress.	!	!LO:DY:a:rj
4EE-/	4G'/ 4d-	.	4dd-\	Zo-	p
=35	=35	=35	=35	=35	=35
*	*^	*	*	*	*
!	!	!	!	!	!	!LO:HP:a
8AA-/	8A-'/ 8c	4ryy	.	4.cc\	-staw-	<
8r	8r	.	.	.	.	.
(8A-\L	(8cc/L	[2a-\	<	.	.	.
8c\	8ee-/	.	.	8ee-\	-że	.
8Bn\	8ddn/	.	.	8ddn\L	łzy	.
8d-\J	8ff/J	.	[[	8ff\J	.	[
=36	=36	=36	=36	=36	=36	=36
!	!	!	!	!	!	!LO:HP:a
8c\L)	8ee-/L	8a-\]	.	8ee-\	i	>
(8F\J	(<8a-/J)	8r	.	8a-/	ru-	.
!	!LO:TX:b:i:t=legg.	!	!	!	!	!
4G'\)	4f-X'/) 4b- 4dd-	2ryy	.	4dd-\	-mie-	.
4A-'\	4e-'/ 4a- 4cc	.	.	8cc\	-niec	]
.	.	.	.	8cc\	Dla	.
*	*v	*v	*	*	*	*
=37	=37	=37	=37	=37	=37
(4En\	2c/ 2a- 2cc	>	8b-\	nie-	.
.	.	.	8a-/	-szczę-	.
4F\)	.	]	8g/L	-sne-	.
.	.	.	8f/J	.	.
4BB-'/	4dn'/ 4a- 4b-	.	8g/	-go	.
.	.	.	8a-/	ko-	.
!!LO:LB:g=original
=38	=38	=38	=38	=38	=38
4E-'\	2e-/ 2g 2b-	.	4b-\	-chan-	.
4EE-'/	.	.	4e-/	-ka;	.
4E-'\	4G'/ 4B- 4e-	.	4r	.	.
=39	=39	=39	=39	=39	=39
!	!	!LO:HP:t=poco cresc.	!	!	!LO:HP:a:t=poco cresc.
4D-'\	4A-'/ 4d- 4f	<	8f/	Gdy	<
.	.	.	8g/	szczęś-	.
4EEn'/	4d-'/ 4g	.	4b-/	-li-	.
4FF'/	4c'/ 4a-	.	4a-/	-wy	.
=40	=40	=40	=40	=40	=40
4GG'/	4f-X'/ 4b-	.	8b-\	bie-	.
.	.	.	8cc\	-rze	.
4AAn'/	4e-'/ 4g-X 4cc	.	4ee-\	wie-	.
4BB-'/	4d-'/ 4f- 4dd-	.	4dd-\	-niec	.
=41	=41	=41	=41	=41	=41
4EE-'/	4e-'/ 4a- 4cc	.	8cc\	Z_róż,	.
!	!	!	!LO:TX:a:i:t=legg.	!	!
.	.	.	8ee-\	li-	.
!	!LO:TX:b:i:t=legg.	!	!	!	!
4Bn'\	4a-'\ 4ddn	.	8ddn\	-li-	.
.	.	.	8ff\	-i	.
4c'\	[4a-\ [4ee-	.	8ee-\	i	.
.	.	.	8a-/	ty-	.
=42	=42	=42	=42	=42	=42
*	*^	*	*	*	*
2.EE-/ 2.BB-	8ee-/L]	8a-\]	.	8dd-X\L	-mian-	.
.	(24B-/L	2ryy	.	8cc\J	.	.
.	24a-/	.	.	.	.	.
.	24B-/JJ	.	.	.	.	.
.	8g/L)	.	.	[2b-\	-ka.	.
.	8B-'/J	.	.	.	.	.
.	[4f^/	.	.	.	.	.
.	.	8ryy	.	.	.	.
*	*v	*v	*	*	*	*
!!LO:LB:g=original
=43	=43	=43	=43	=43	=43
2.EE-/ 2.BB-	8f/L]	.	8b-\]	.	.
.	(24G/L	.	8r	.	.
.	24e-/	.	.	.	.
.	24G/JJ	.	.	.	.
.	8dn/L)	.	4r	.	.
.	8G'/J	.	.	.	.
.	(4d-X^/	.	4r	.	.
=44	=44	=44	=44	=44	=44
!	!	!	!	!	!LO:HP:a
4GG-X'/	4A-/) 4c	<	8b-\	Gdy	<
.	.	.	8cc\	szczę-	.
4FF'/	4A-'/ 4e-	.	4ee-\	-śli-	.
4F'\	4A-/ 4d-	.	4dd-\	-wy	.
=45	=45	=45	=45	=45	=45
*	*^	*	*	*	*
!	!	!	!	!	!	!LO:HP:a
(4En\	2A-/ 2a-	(4c\	<	8cc\	bie-	<
.	.	.	.	8dd-\	-rze	.
4F\)	.	4d-\)	[	4.aa-\	wie-	[
(4D-\	(>[<4A-/ 4f [>4a-	4ryy	.	.	.	.
.	.	.	.	8ff\	-niec	.
*	*v	*v	*	*	*	*
=46	=46	=46	=46	=46	=46
4C/)	4A-/]) 4e- 4a-]	.	8ee-\	Z_róż,	.
!	!	!	!	!	!LO:DY:a
.	.	.	8cc\	li-	p
4BB-'/	4d-'/ 4a-	p	8dd-\	-li-	.
.	.	.	8f/	-i	.
4E-'\	[4d-/ [4g	.	8.cc\	i	.
.	.	.	16g/	ty-	.
!!LO:LB:g=original
=47	=47	=47	=47	=47	=47
2.AA-/ 2.E-	8d-/L] 8g]	.	4b-\	-mian-	.
.	(24c/L	.	.	.	.
.	24g/	.	.	.	.
.	24c/JJ	.	.	.	.
.	8f/L)	.	4a-/	-ka.	.
.	8c'/J	.	.	.	.
.	[4e-^/	.	4r	.	.
=48	=48	=48	=48	=48	=48
2.AA-/ 2.E-	8e-/L]	.	2.r	.	.
.	(24c-X/L	.	.	.	.
.	24f/	.	.	.	.
.	24c-/JJ	.	.	.	.
.	8e-/L)	.	.	.	.
.	8A-'/J	.	.	.	.
.	[4dn^/	.	.	.	.
=49	=49	=49	=49	=49	=49
[2.AA-/ [2.E-	16d/LL]	.	2.r	.	.
.	(16A-/	.	.	.	.
.	16c-X/	.	.	.	.
.	16e-/JJ	.	.	.	.
.	16dn/LL	.	.	.	.
.	16c-/	.	.	.	.
.	16d/	.	.	.	.
.	16g/JJ	.	.	.	.
.	16f/LL	.	.	.	.
.	16A-/	.	.	.	.
.	16c-/	.	.	.	.
.	16d/JJ	.	.	.	.
=50	=50	=50	=50	=50	=50
*	*^	*	*	*	*
2AA-/] 2E-]	[2.e-/)	8r	pp	2.r	.	.
.	.	(24F\LL	.	.	.	.
.	.	24A-\	.	.	.	.
.	.	24F\JJ	.	.	.	.
.	.	[2A-\)	.	.	.	.
4AA-/ 4E-	.	.	.	.	.	.
=51	=51	=51	=51	=51	=51	=51
2.AA-/ 2.E-	2.e-/]	2.A-\]	.	2.r	.	.
*	*v	*v	*	*	*	*
==	==	==	==	==	==
*-	*-	*-	*-	*-	*-
!!!system-decoration: s1{(s2,s3)}
!!!RDF**kern: < = below
!!!RDF**kern: > = above
!!!RDF**kern: N = linked
!!!ENC: Filip Voros
!!!END: 2022-03-23
!!!ENC: Marta Chmielewska
!!!END: 2022-03-26
